X:15
T: Micho Russell's
S: Mary Bergin
Z: B.Black
R: reel
M: 4/4
L: 1/8
K: G
BdBG AcAG | (3FED AD BDAD | DGGF G2 ag | fddc ABcA |
BdBG AcAG | (3FED AD BDAD | DGGF G2 ge | fddc BG G2 :|
dggf g2 ag | fdde fdcA | dggf g2 gb | a2 ga bg g2 |
b2 af gbag | fdde f3 g | a2 ag a2 ga | fddc ABcA :|
